X: 2658
T: Banjo Breakdown
R: jig
M: 6/8
K: Amixolydian
e|:AAA c2 e|a2 e c2 e|AAA d2 f|a2 f d2 f|
[1 AAA c2 e|a2 e c2 e|BBB c2 e|BBB c2 e:|
[2 efg agf|efe dcB|Ace aec|A3 A2 z||
|:a2 e c2 e|a2 e c2 e|a2 f d2 f|a2 f d2 f|
[1 a2 e c2 e|a2 e c2 e|BBB c2 e|BBB c2 e:|
[2 efg agf|efe dcB|Ace aec|A3 a2 e||
|:AAA c2 e|AAA c2 e|BBB d2 f|BBB d2 f|
[1 AAA c2 e|AAA c2 e|B2 e ccc|BBB c2 e:|
[2 efg agf|efe dcB|Ace aec|A3 A2 e||
|:aee cee|aee cee|aff dff|aff dff|
[1 aee cee|aee cee|Bee cee|Bee c2 e:|
[2 efg agf|efe dcB|Ace aec|A3 .a2- a||

